contributed-vectors/brawl_stars.svg

<svg xmlns="http://www.w3.org/2000/svg" xml:space="preserve" style="fill-rule:evenodd;clip-rule:evenodd;stroke-linejoin:round;stroke-miterlimit:2" viewBox="0 0 192 192"><path d="M164.5 21.5c0-5.519-4.481-10-10-10h-133c-5.519 0-10 4.481-10 10v133c0 5.519 4.481 10 10 10h133c5.519 0 10-4.481 10-10v-133Z" style="fill:#f9de81" transform="translate(8 8)"/><circle cx="96" cy="96" r="66.5" style="fill:#4a4a4a"/><path d="M41.427 89.938C42.526 61.839 67.22 40.229 96 40.229c30.781 0 55.771 24.99 55.771 55.771 0 9.019-1.697 16.108-6.552 24.429-8.899 13.9-26.793 20.847-45.101 20.847-30.981 0-59.671-26.282-58.691-51.338Z" style="fill:#f8c18c"/><path d="M115.201 90.207c0-1.229-1.091-2.225-2.438-2.225h-8.06c-1.346 0-2.438.996-2.438 2.225v.516c0 1.23 1.092 2.226 2.438 2.226h8.06c1.347 0 2.438-.996 2.438-2.226v-.516Z" style="fill:#8e6f60" transform="matrix(1.17235 -.67685 .7413 1.28397 -85.951 47.648)"/><path d="M115.201 90.181c0-.583-.254-1.143-.705-1.555a2.529 2.529 0 0 0-1.703-.644h-8.119c-.639 0-1.252.231-1.703.644a2.106 2.106 0 0 0-.706 1.555v.569c0 .583.254 1.143.706 1.555a2.53 2.53 0 0 0 1.703.644h8.119c.638 0 1.251-.232 1.703-.644.451-.412.705-.972.705-1.555v-.569Z" style="fill:#8e6f60" transform="matrix(-.67685 -1.17235 1.28397 -.7413 46.242 279.037)"/><path d="M109.581 141.276H61.91v10.799c0 1.533.506 3.003 1.405 4.087.9 1.084 2.121 1.693 3.393 1.693h38.075c1.273 0 2.493-.609 3.393-1.693.9-1.084 1.405-2.554 1.405-4.087v-10.799Z" style="fill:#f8c18c" transform="matrix(1.15781 .33226 -.27584 .9612 26.62 -36.29)"/><path d="m86.371 111.297 6.008 10.038H80.363l6.008-10.038Z" style="fill:#8e6f60" transform="matrix(1.33228 .38203 -.38147 1.33034 19.499 -70.662)"/><circle cx="118.387" cy="112.34" r="16.122" style="fill:#8e6f60" transform="matrix(1 0 0 1.02778 0 -3.568)"/><circle cx="118.387" cy="112.34" r="16.122" style="fill:#8e6f60" transform="matrix(1 0 0 1.02778 -48.65 -17.468)"/><circle cx="79.476" cy="58.29" r="10.705" style="fill:#fff" transform="matrix(1.70348 -.62001 .40472 1.11196 -77.317 44.087)"/></svg>

<?xml version="1.0" encoding="UTF-8" standalone="no"?>
<!DOCTYPE svg PUBLIC "-//W3C//DTD SVG 1.1//EN" "http://www.w3.org/Graphics/SVG/1.1/DTD/svg11.dtd">
<svg width="100%" height="100%" viewBox="0 0 192 192" version="1.1" xmlns="http://www.w3.org/2000/svg" xmlns:xlink="http://www.w3.org/1999/xlink" xml:space="preserve" xmlns:serif="http://www.serif.com/" style="fill-rule:evenodd;clip-rule:evenodd;stroke-linejoin:round;stroke-miterlimit:2;">
    <g id="Layer1">
        <g transform="matrix(1,0,0,1,8,8)">
            <path d="M164.5,21.5C164.5,15.981 160.019,11.5 154.5,11.5L21.5,11.5C15.981,11.5 11.5,15.981 11.5,21.5L11.5,154.5C11.5,160.019 15.981,164.5 21.5,164.5L154.5,164.5C160.019,164.5 164.5,160.019 164.5,154.5L164.5,21.5Z" style="fill:rgb(249,222,129);"/>
        </g>
        <circle cx="96" cy="96" r="66.5" style="fill:rgb(74,74,74);"/>
        <path d="M41.427,89.938C42.526,61.839 67.22,40.229 96,40.229C126.781,40.229 151.771,65.219 151.771,96C151.771,105.019 150.074,112.108 145.219,120.429C136.32,134.329 118.426,141.276 100.118,141.276C69.137,141.276 40.447,114.994 41.427,89.938Z" style="fill:rgb(248,193,140);"/>
        <g transform="matrix(1.17235,-0.676854,0.741298,1.28397,-85.9512,47.6483)">
            <path d="M115.201,90.207C115.201,88.978 114.11,87.982 112.763,87.982C110.456,87.982 107.01,87.982 104.703,87.982C103.357,87.982 102.265,88.978 102.265,90.207C102.265,90.379 102.265,90.552 102.265,90.723C102.265,91.953 103.357,92.949 104.703,92.949C107.01,92.949 110.456,92.949 112.763,92.949C114.11,92.949 115.201,91.953 115.201,90.723C115.201,90.552 115.201,90.379 115.201,90.207Z" style="fill:rgb(142,111,96);"/>
        </g>
        <g transform="matrix(-0.676854,-1.17235,1.28397,-0.741298,46.2419,279.037)">
            <path d="M115.201,90.181C115.201,89.598 114.947,89.038 114.496,88.626C114.044,88.213 113.431,87.982 112.793,87.982C110.475,87.982 106.991,87.982 104.674,87.982C104.035,87.982 103.422,88.213 102.971,88.626C102.519,89.038 102.265,89.598 102.265,90.181C102.265,90.37 102.265,90.561 102.265,90.75C102.265,91.333 102.519,91.893 102.971,92.305C103.422,92.717 104.035,92.949 104.674,92.949C106.991,92.949 110.475,92.949 112.793,92.949C113.431,92.949 114.044,92.717 114.496,92.305C114.947,91.893 115.201,91.333 115.201,90.75C115.201,90.561 115.201,90.37 115.201,90.181Z" style="fill:rgb(142,111,96);"/>
        </g>
        <g transform="matrix(1.15781,0.332265,-0.275844,0.961202,26.6195,-36.2897)">
            <path d="M109.581,141.276L61.91,141.276L61.91,152.075C61.91,153.608 62.416,155.078 63.315,156.162C64.215,157.246 65.436,157.855 66.708,157.855C75.846,157.855 95.646,157.855 104.783,157.855C106.056,157.855 107.276,157.246 108.176,156.162C109.076,155.078 109.581,153.608 109.581,152.075C109.581,147.291 109.581,141.276 109.581,141.276Z" style="fill:rgb(248,193,140);"/>
        </g>
        <g transform="matrix(1.33228,0.382025,-0.381468,1.33034,19.499,-70.6617)">
            <path d="M86.371,111.297L92.379,121.335L80.363,121.335L86.371,111.297Z" style="fill:rgb(142,111,96);"/>
        </g>
        <g transform="matrix(1,0,0,1.02778,0,-3.56813)">
            <circle cx="118.387" cy="112.34" r="16.122" style="fill:rgb(142,111,96);"/>
        </g>
        <g transform="matrix(1,0,0,1.02778,-48.6505,-17.4683)">
            <circle cx="118.387" cy="112.34" r="16.122" style="fill:rgb(142,111,96);"/>
        </g>
        <g transform="matrix(1.70348,-0.620015,0.40472,1.11196,-77.3172,44.0868)">
            <circle cx="79.476" cy="58.29" r="10.705" style="fill:white;"/>
        </g>
    </g>
</svg>
